X:1
T:California Scottish Fiddlers
M:C
L:1/8
C:Arthur S. Robertson
K:A
E|AcBA F2 DF|E2 cA GABG|AcBc f2 af|feeA cBBz|
AcBA F2 dF|E2 cA GFED|CEAG|F2 dB|GEGB cAA||
d|c=c^cA d2 fd|c2 ac BcdB|cBcA dfga|fB^df e2 =dB|
c=c^cA EAcA|dcdB FBdB|cBcA dfga|eEGB cAA||

